Numix-Light/16/status/indicator-keyboard-Ta-1.svg

<?xml version="1.0" encoding="UTF-8" standalone="no"?>
<svg
   xmlns:dc="http://purl.org/dc/elements/1.1/"
   xmlns:cc="http://creativecommons.org/ns#"
   xmlns:rdf="http://www.w3.org/1999/02/22-rdf-syntax-ns#"
   xmlns:svg="http://www.w3.org/2000/svg"
   xmlns="http://www.w3.org/2000/svg"
   xmlns:sodipodi="http://sodipodi.sourceforge.net/DTD/sodipodi-0.dtd"
   xmlns:inkscape="http://www.inkscape.org/namespaces/inkscape"
   viewBox="0 0 16 16"
   id="svg2"
   version="1.1"
   inkscape:version="0.91 r13725"
   sodipodi:docname="indicator-keyboard-Ta-1.svg">
  <metadata
     id="metadata14">
    <rdf:RDF>
      <cc:Work
         rdf:about="">
        <dc:format>image/svg+xml</dc:format>
        <dc:type
           rdf:resource="http://purl.org/dc/dcmitype/StillImage" />
      </cc:Work>
    </rdf:RDF>
  </metadata>
  <defs
     id="defs12" />
  <sodipodi:namedview
     pagecolor="#ffffff"
     bordercolor="#666666"
     borderopacity="1"
     objecttolerance="10"
     gridtolerance="10"
     guidetolerance="10"
     inkscape:pageopacity="0"
     inkscape:pageshadow="2"
     inkscape:window-width="640"
     inkscape:window-height="480"
     id="namedview10"
     showgrid="false"
     inkscape:zoom="14.75"
     inkscape:cx="8"
     inkscape:cy="8"
     inkscape:window-x="65"
     inkscape:window-y="24"
     inkscape:window-maximized="0"
     inkscape:current-layer="svg2" />
  <path
     style="fill:#353535;fill-opacity:1"
     d="M 1.5996094 0 C 0.71320937 2.9605947e-16 0 0.71320937 0 1.5996094 L 0 14.400391 C 2.9605947e-16 15.286791 0.71320937 16 1.5996094 16 L 14.400391 16 C 15.286791 16 16 15.286791 16 14.400391 L 16 1.5996094 C 16 0.71320937 15.286791 0 14.400391 0 L 1.5996094 0 z M 2.4335938 4.859375 L 7.0429688 4.859375 L 7.0429688 5.390625 L 5.0449219 5.390625 L 5.0449219 11.095703 L 4.4316406 11.095703 L 4.4316406 5.390625 L 2.4335938 5.390625 L 2.4335938 4.859375 z M 9.0996094 6.3359375 C 9.4056094 6.3359375 9.6630469 6.3807031 9.8730469 6.4707031 C 10.089047 6.5547031 10.264484 6.6740781 10.396484 6.8300781 C 10.528484 6.9800781 10.623594 7.1591406 10.683594 7.3691406 C 10.743594 7.5791406 10.773438 7.8086875 10.773438 8.0546875 L 10.773438 10.988281 C 10.713437 11.006281 10.627672 11.026781 10.513672 11.050781 C 10.399672 11.068781 10.267188 11.089281 10.117188 11.113281 C 9.9671877 11.137281 9.7992813 11.155969 9.6132812 11.167969 C 9.4332813 11.185969 9.2466875 11.195313 9.0546875 11.195312 C 8.8086875 11.195312 8.5810937 11.167281 8.3710938 11.113281 C 8.1670938 11.059281 7.9860781 10.975328 7.8300781 10.861328 C 7.6800781 10.741328 7.5607031 10.592109 7.4707031 10.412109 C 7.3867031 10.226109 7.3457031 10.000328 7.3457031 9.7363281 C 7.3457031 9.4843281 7.3922813 9.2698437 7.4882812 9.0898438 C 7.5842813 8.9098438 7.7205313 8.7624375 7.8945312 8.6484375 C 8.0685312 8.5284375 8.275625 8.4407188 8.515625 8.3867188 C 8.755625 8.3327188 9.014875 8.3066406 9.296875 8.3066406 C 9.380875 8.3066406 9.4685938 8.3122187 9.5585938 8.3242188 C 9.6545937 8.3302187 9.744125 8.341375 9.828125 8.359375 C 9.918125 8.371375 9.9946877 8.3862969 10.054688 8.4042969 C 10.120687 8.4162969 10.165453 8.4294063 10.189453 8.4414062 L 10.189453 8.1523438 C 10.189453 7.9903437 10.176344 7.8355469 10.152344 7.6855469 C 10.128344 7.5295469 10.074234 7.3914844 9.9902344 7.2714844 C 9.9122344 7.1454844 9.7984375 7.0466094 9.6484375 6.9746094 C 9.5044375 6.8966094 9.3122656 6.8574219 9.0722656 6.8574219 C 8.7302656 6.8574219 8.4765938 6.8816875 8.3085938 6.9296875 C 8.1405937 6.9776875 8.0174531 7.016875 7.9394531 7.046875 L 7.8574219 6.5332031 C 7.9594219 6.4852031 8.1161719 6.4404375 8.3261719 6.3984375 C 8.5421719 6.3564375 8.7996094 6.3359375 9.0996094 6.3359375 z M 9.2792969 8.8105469 C 9.1352969 8.8105469 8.9860781 8.8217031 8.8300781 8.8457031 C 8.6740781 8.8637031 8.5304375 8.9084687 8.3984375 8.9804688 C 8.2664375 9.0464688 8.1582188 9.1397656 8.0742188 9.2597656 C 7.9902188 9.3797656 7.9472656 9.5383281 7.9472656 9.7363281 C 7.9472656 9.9103281 7.9752969 10.057734 8.0292969 10.177734 C 8.0892969 10.297734 8.1694844 10.394797 8.2714844 10.466797 C 8.3794844 10.538797 8.5063906 10.592906 8.6503906 10.628906 C 8.8003906 10.658906 8.9682969 10.673828 9.1542969 10.673828 C 9.3822969 10.673828 9.5800469 10.666297 9.7480469 10.654297 C 9.9220467 10.636297 10.069453 10.615797 10.189453 10.591797 L 10.189453 8.953125 C 10.123453 8.923125 10.017047 8.8932812 9.8730469 8.8632812 C 9.7290469 8.8272812 9.5312969 8.8105469 9.2792969 8.8105469 z M 13.296875 8.8417969 L 13.566406 8.8417969 L 13.566406 12.896484 L 13.185547 12.896484 L 13.185547 9.421875 C 13.142647 9.468675 13.085825 9.5157063 13.015625 9.5664062 C 12.949325 9.6171063 12.872909 9.66805 12.787109 9.71875 C 12.701309 9.76555 12.613131 9.812575 12.519531 9.859375 C 12.425931 9.902275 12.331881 9.9375437 12.238281 9.9648438 L 12.126953 9.671875 C 12.360953 9.5899751 12.568653 9.4880813 12.751953 9.3632812 C 12.935253 9.2345813 13.117475 9.0601969 13.296875 8.8417969 z "
     id="path4" />
</svg>

<svg xmlns="http://www.w3.org/2000/svg" viewBox="0 0 16 16">
 <path d="m 1.6 0 c -0.886 0 -1.6 0.713 -1.6 1.6 l 0 12.801 c 0 0.886 0.713 1.6 1.6 1.6 l 12.801 0 c 0.886 0 1.6 -0.713 1.6 -1.6 l 0 -12.801 c 0 -0.886 -0.713 -1.6 -1.6 -1.6 l -12.801 0 z m 0.834 4.859 l 4.609 0 l 0 0.531 l -1.998 0 l 0 5.705 l -0.613 0 l 0 -5.705 l -1.998 0 l 0 -0.531 z m 6.666 1.477 c 0.306 0 0.563 0.045 0.773 0.135 c 0.216 0.084 0.391 0.203 0.523 0.359 c 0.132 0.15 0.227 0.329 0.287 0.539 c 0.06 0.21 0.09 0.44 0.09 0.686 l 0 2.934 c -0.06 0.018 -0.146 0.038 -0.26 0.063 c -0.114 0.018 -0.246 0.038 -0.396 0.063 c -0.15 0.024 -0.318 0.043 -0.504 0.055 c -0.18 0.018 -0.367 0.027 -0.559 0.027 c -0.246 0 -0.474 -0.028 -0.684 -0.082 c -0.204 -0.054 -0.385 -0.138 -0.541 -0.252 c -0.15 -0.12 -0.269 -0.269 -0.359 -0.449 c -0.084 -0.186 -0.125 -0.412 -0.125 -0.676 c 0 -0.252 0.047 -0.466 0.143 -0.646 c 0.096 -0.18 0.232 -0.327 0.406 -0.441 c 0.174 -0.12 0.381 -0.208 0.621 -0.262 c 0.24 -0.054 0.499 -0.08 0.781 -0.08 c 0.084 0 0.172 0.006 0.262 0.018 c 0.096 0.006 0.186 0.017 0.27 0.035 c 0.09 0.012 0.167 0.027 0.227 0.045 c 0.066 0.012 0.111 0.025 0.135 0.037 l 0 -0.289 c 0 -0.162 -0.013 -0.317 -0.037 -0.467 c -0.024 -0.156 -0.078 -0.294 -0.162 -0.414 c -0.078 -0.126 -0.192 -0.225 -0.342 -0.297 c -0.144 -0.078 -0.336 -0.117 -0.576 -0.117 c -0.342 0 -0.596 0.024 -0.764 0.072 c -0.168 0.048 -0.291 0.087 -0.369 0.117 l -0.082 -0.514 c 0.102 -0.048 0.259 -0.093 0.469 -0.135 c 0.216 -0.042 0.473 -0.063 0.773 -0.063 z m 0.18 2.475 c -0.144 0 -0.293 0.011 -0.449 0.035 c -0.156 0.018 -0.3 0.063 -0.432 0.135 c -0.132 0.066 -0.24 0.159 -0.324 0.279 c -0.084 0.12 -0.127 0.279 -0.127 0.477 c 0 0.174 0.028 0.321 0.082 0.441 c 0.06 0.12 0.14 0.217 0.242 0.289 c 0.108 0.072 0.235 0.126 0.379 0.162 c 0.15 0.03 0.318 0.045 0.504 0.045 c 0.228 0 0.426 -0.008 0.594 -0.02 c 0.174 -0.018 0.321 -0.038 0.441 -0.063 l 0 -1.639 c -0.066 -0.03 -0.172 -0.06 -0.316 -0.09 c -0.144 -0.036 -0.342 -0.053 -0.594 -0.053 z m 4.02 0.031 l 0.27 0 l 0 4.055 l -0.381 0 l 0 -3.475 c -0.043 0.047 -0.1 0.094 -0.17 0.145 c -0.066 0.051 -0.143 0.102 -0.229 0.152 c -0.086 0.047 -0.174 0.094 -0.268 0.141 c -0.094 0.043 -0.188 0.078 -0.281 0.105 l -0.111 -0.293 c 0.234 -0.082 0.442 -0.184 0.625 -0.309 c 0.183 -0.129 0.366 -0.303 0.545 -0.521 z" style="fill:#353535;fill-opacity:1"/>
</svg>
